svg/u1f44c_1f3fe.svg

<svg viewBox="0 0 128 128" xmlns="http://www.w3.org/2000/svg">
  <defs>
    <linearGradient id="e" gradientUnits="userSpaceOnUse" x1="42.41" x2="83.27" y1="39.533" y2="39.533">
      <stop offset="0" stop-color="#A56C43"/>
      <stop offset=".5163" stop-color="#965F3C"/>
      <stop offset=".9991" stop-color="#8D5738"/>
    </linearGradient>
    <linearGradient id="d" gradientUnits="userSpaceOnUse" x1="45.612" x2="104.92" y1="47.458" y2="47.458">
      <stop offset="0" stop-color="#A56C43"/>
      <stop offset=".4321" stop-color="#A26942"/>
      <stop offset=".7794" stop-color="#98603D"/>
      <stop offset=".9991" stop-color="#8D5738"/>
    </linearGradient>
    <linearGradient id="a" gradientUnits="userSpaceOnUse" x1="33.107" x2="88.824" y1="56.243" y2="111.96">
      <stop offset="0" stop-color="#A56C43"/>
      <stop offset=".4321" stop-color="#A26942"/>
      <stop offset=".7794" stop-color="#98603D"/>
      <stop offset=".9991" stop-color="#8D5738"/>
    </linearGradient>
  </defs>
  <path d="M77.93,56.51 C68.42,56.51 48.77,40.61 47.58,39.64 C45.28,37.33 40.4,31.35 43.3,24.72 C43.92,23.29 45.27,22.57 47.29,22.57 C49.74,22.57 52.91,23.68 55.76,25.54 L81.25,45.23 C84.49,47.68 83.39,52.22 80.99,55.42 C80.33,56.15 79.33,56.51 77.93,56.51 Z" fill="url(#e)"/>
  <path d="M47.29,24.06 C49.45,24.06 52.29,25.06 54.89,26.75 L80.35,46.43 C83.1,48.51 81.25,52.53 79.83,54.46 C79.65,54.65 79.18,55.02 77.92,55.02 C70.32,55.02 54.29,43.21 48.59,38.54 C46.49,36.41 42.16,31.07 44.67,25.33 C44.84,24.94 45.23,24.06 47.29,24.06 M47.29,21.06 C44.86,21.06 42.87,21.97 41.93,24.11 C39.22,30.3 42.32,36.49 46.57,40.75 C46.57,40.75 67.51,58.01 77.92,58.01 C79.68,58.01 81.14,57.52 82.15,56.36 C85.13,52.42 86.1,47.02 82.16,44.04 L56.63,24.3 C53.6,22.32 50.15,21.06 47.29,21.06 Z" fill="#875334"/>
  <path d="M96.48,89.21 C87.18,89.11 84.18,68.94 83.81,61.16 C83.79,60.71 83.57,60.3 83.21,60.03 C78.92,56.8 74.12,45.84 71.06,36.65 C70.97,36.39 70.91,36.26 70.9,36.25 C70.71,35.91 70.4,35.65 70.02,35.53 C63.15,33.42 52.67,24.88 48.48,19.94 C46.17,17.22 44.69,11.45 46.24,8.11 C46.99,6.49 48.33,5.71 50.34,5.71 C52.88,5.71 56.38,7.01 60.47,9.48 C61.61,10.31 81.15,24.57 86.27,30.24 C91.48,36.01 97.91,48.87 97.97,49 C106.22,66.42 105.01,82.11 104.6,85.67 C101.18,87.31 97.33,89.03 96.48,89.21 Z" fill="url(#d)"/>
  <path d="M50.35,7.21 C51.92,7.21 54.81,7.82 59.65,10.73 C61.22,11.87 80.21,25.75 85.17,31.24 C90.14,36.74 96.32,49.02 96.63,49.64 C104.17,65.59 103.63,80.09 103.21,84.67 C100.35,86.03 97.32,87.38 96.31,87.69 C88.97,87.29 85.74,69.66 85.32,61.08 C85.28,60.19 84.84,59.36 84.13,58.82 C81.62,56.93 77.06,49.86 72.5,36.17 C72.42,35.93 72.36,35.76 72.23,35.52 C71.86,34.83 71.23,34.32 70.48,34.09 C67.47,33.16 63.38,30.8 58.95,27.43 C55.3,24.65 51.64,21.32 49.64,18.96 C47.43,16.36 46.43,11.29 47.61,8.73 C47.96,7.98 48.56,7.21 50.35,7.21 M50.35,4.21 C41.9,4.21 43.22,16.05 47.35,20.91 C51.33,25.6 62.05,34.64 69.6,36.97 C69.64,37.04 75.79,56.31 82.32,61.23 C82.32,61.23 83.72,90.71 96.56,90.71 C97.68,90.71 106,86.67 106,86.67 C106,86.67 109,68.75 99.33,48.34 C99.33,48.34 92.82,35.24 87.4,29.24 C81.98,23.24 61.31,8.24 61.31,8.24 C56.56,5.36 52.98,4.21 50.35,4.21 Z" fill="#875334"/>
  <path d="M51.27,122.29 C49.01,122.27 43.29,119.04 42.5,118.35 C42.46,118.31 42.38,118.25 42.34,118.22 C42.25,118.16 33.29,111.75 28.77,105.46 C24.33,99.28 22.9,87.17 22.89,87.05 C22.33,83.09 22.75,78.07 27.96,76.34 C28.79,76.06 29.63,75.92 30.47,75.92 C34.39,75.92 37.47,78.91 39.07,81.74 C39.67,83.25 45.84,97.97 57.59,97.97 C59.57,97.97 61.61,97.54 63.65,96.68 C70.84,93.67 73.64,88.32 74.72,84.36 C76.51,77.81 74.8,70.69 72.28,67.32 C69.62,63.75 65,61.63 59.94,61.63 C57.99,61.63 56.12,61.95 54.53,62.57 C52.1,63.51 49.91,65.2 47.79,66.83 C45.71,68.43 43.56,70.09 41.15,71.09 C39.25,71.88 37.45,72.26 35.64,72.26 C32.7,72.26 29.8,71.23 26.77,69.12 C25.43,68.19 24.77,67 24.81,65.59 C24.86,63.65 26.25,61.53 28.36,60.21 C35.28,55.38 45.73,48.12 46.72,47.51 C50.04,45.96 55.28,44.69 58.42,44.69 C59.39,44.69 59.95,44.81 60.24,44.9 L81.78,51.91 C85.247,53.068 90.021,59.435 93.567,64.678 C94.844,67.452 96.075,70.18 97.28,72.45 C101.43,80.28 102.74,84.51 102.74,84.51 C102.74,84.51 103.672,84.435 104.513,84.699 C104.5,85.29 104.432,85.879 104.3,86.46 C103.6,89.54 100.87,96.41 96.41,106.34 C92.07,116 82.04,122.25 70.87,122.27 Z" fill="url(#a)"/>
  <path d="M58.41,46.18 C55.53,46.18 50.54,47.38 47.43,48.8 C46.07,49.67 35.67,56.9 29.27,61.37 C29.23,61.4 29.19,61.42 29.15,61.45 C27.48,62.5 26.33,64.17 26.3,65.6 C26.27,66.49 26.71,67.23 27.62,67.87 C30.39,69.8 33.01,70.74 35.63,70.74 C37.23,70.74 38.85,70.39 40.56,69.68 C42.79,68.75 44.77,67.23 46.86,65.61 C49.07,63.91 51.34,62.16 53.98,61.14 C55.74,60.46 57.8,60.1 59.93,60.1 C65.46,60.1 70.53,62.46 73.47,66.4 C76.26,70.14 78.08,77.64 76.15,84.73 C74.98,89.01 71.97,94.8 64.22,98.04 C62,98.97 59.76,99.44 57.58,99.44 C45.08,99.44 38.55,84.46 37.7,82.37 C36.31,79.93 33.7,77.39 30.46,77.39 C29.78,77.39 29.1,77.5 28.42,77.73 C25.03,78.85 23.66,81.89 24.36,86.76 C24.36,86.79 24.37,86.82 24.37,86.85 C24.39,86.97 25.78,98.7 29.98,104.56 C34.36,110.66 43.11,116.92 43.2,116.98 C43.3,117.04 43.39,117.12 43.48,117.2 C44.61,118.09 49.71,120.77 51.28,120.78 L70.86,120.75 C81.45,120.73 90.94,114.83 95.04,105.71 C100.63,93.28 102.37,88.19 102.84,86.11 C102.959,85.586 103.014,85.048 103.014,84.5 C103.803,84.495 106.01,84.641 105.824,86.477 C105.804,86.578 105.783,86.679 105.76,86.78 C104.88,90.62 101.3,99.09 97.77,106.95 C93.19,117.13 82.59,123.74 70.86,123.76 L51.25,123.79 C48.45,123.77 42.22,120.16 41.46,119.43 C41.46,119.43 32.26,112.9 27.54,106.32 C27.326,106.021 27.118,105.71 26.917,105.388 C22.717,98.595 21.58,86.87 21.58,86.87 C21.537,82.573 21.744,79.255 23.88,77.042 C24.345,76.58 24.878,76.164 25.484,75.802 C26.064,75.466 26.729,75.171 27.49,74.92 C33.014,73.092 37.95,76.653 40.413,81.096 C40.454,81.203 41.009,82.614 42.063,84.54 C45.079,90.06 52.202,99.857 63.06,95.31 C75.398,90.145 75.228,77.024 72.326,70.442 C71.944,69.574 71.515,68.818 71.06,68.21 C68.36,64.6 63.91,63.12 59.92,63.12 C58.14,63.12 56.45,63.42 55.05,63.96 C50.54,65.7 46.84,70.34 41.71,72.47 C39.69,73.3 37.67,73.75 35.63,73.75 C32.47,73.75 29.26,72.69 25.9,70.34 C25.537,70.087 25.215,69.817 24.932,69.535 C21.725,66.321 23.592,61.429 27.55,58.94 C27.55,58.94 45.68,46.29 46.03,46.17 C46.387,46.001 46.774,45.828 47.185,45.653 C50.5,44.312 55.199,43.18 58.41,43.18 C59.32,43.18 60.11,43.27 60.71,43.47 L82.24,50.47 C84.548,51.238 87.19,53.796 89.736,56.901 C92.446,61.771 94.915,67.994 97.28,72.45 C97.355,72.592 97.43,72.733 97.503,72.873 C97.152,72.467 96.831,72.122 96.56,71.85 C96.41,71.7 96.28,71.54 96.17,71.37 C95.89,70.94 95.59,70.47 95.26,69.96 C92.3,65.39 85.38,54.67 81.29,53.31 L59.78,46.32 C59.66,46.29 59.28,46.18 58.41,46.18 Z" fill="#875334"/>
</svg>

<svg viewBox="0 0 128 128" xmlns="http://www.w3.org/2000/svg" xmlns:xlink="http://www.w3.org/1999/xlink">
  <linearGradient id="e" gradientUnits="userSpaceOnUse" x1="42.41" x2="83.27" y1="39.533" y2="39.533">
    <stop offset="0" stop-color="#A56C43"/>
    <stop offset=".5163" stop-color="#965F3C"/>
    <stop offset=".9991" stop-color="#8D5738"/>
  </linearGradient>
  <path d="m77.93 56.51c-9.51 0-29.16-15.9-30.35-16.87-2.3-2.31-7.18-8.29-4.28-14.92 0.62-1.43 1.97-2.15 3.99-2.15 2.45 0 5.62 1.11 8.47 2.97l25.49 19.69c3.24 2.45 2.14 6.99-0.26 10.19-0.66 0.73-1.66 1.09-3.06 1.09z" fill="url(#e)"/>
  <path d="m47.29 24.06c2.16 0 5 1 7.6 2.69l25.46 19.68c2.75 2.08 0.9 6.1-0.52 8.03-0.18 0.19-0.65 0.56-1.91 0.56-7.6 0-23.63-11.81-29.33-16.48-2.1-2.13-6.43-7.47-3.92-13.21 0.17-0.39 0.56-1.27 2.62-1.27m0-3c-2.43 0-4.42 0.91-5.36 3.05-2.71 6.19 0.39 12.38 4.64 16.64 0 0 20.94 17.26 31.35 17.26 1.76 0 3.22-0.49 4.23-1.65 2.98-3.94 3.95-9.34 0.01-12.32l-25.53-19.74c-3.03-1.98-6.48-3.24-9.34-3.24z" fill="#875334"/>
  <linearGradient id="d" gradientUnits="userSpaceOnUse" x1="45.612" x2="104.92" y1="47.458" y2="47.458">
    <stop offset="0" stop-color="#A56C43"/>
    <stop offset=".4321" stop-color="#A26942"/>
    <stop offset=".7794" stop-color="#98603D"/>
    <stop offset=".9991" stop-color="#8D5738"/>
  </linearGradient>
  <path d="m96.48 89.21c-9.3-0.1-12.3-20.27-12.67-28.05-0.02-0.45-0.24-0.86-0.6-1.13-4.29-3.23-9.09-14.19-12.15-23.38-0.09-0.26-0.15-0.39-0.16-0.4-0.19-0.34-0.5-0.6-0.88-0.72-6.87-2.11-17.35-10.65-21.54-15.59-2.31-2.72-3.79-8.49-2.24-11.83 0.75-1.62 2.09-2.4 4.1-2.4 2.54 0 6.04 1.3 10.13 3.77 1.14 0.83 20.68 15.09 25.8 20.76 5.21 5.77 11.64 18.63 11.7 18.76 8.25 17.42 7.04 33.11 6.63 36.67-3.42 1.64-7.27 3.36-8.12 3.54z" fill="url(#d)"/>
  <path d="m50.35 7.21c1.57 0 4.46 0.61 9.3 3.52 1.57 1.14 20.56 15.02 25.52 20.51 4.97 5.5 11.15 17.78 11.46 18.4 7.54 15.95 7 30.45 6.58 35.03-2.86 1.36-5.89 2.71-6.9 3.02-7.34-0.4-10.57-18.03-10.99-26.61-0.04-0.89-0.48-1.72-1.19-2.26-2.51-1.89-7.07-8.96-11.63-22.65-0.08-0.24-0.14-0.41-0.27-0.65-0.37-0.69-1-1.2-1.75-1.43-3.01-0.93-7.1-3.29-11.53-6.66-3.65-2.78-7.31-6.11-9.31-8.47-2.21-2.6-3.21-7.67-2.03-10.23 0.35-0.75 0.95-1.52 2.74-1.52m0-3c-8.45 0-7.13 11.84-3 16.7 3.98 4.69 14.7 13.73 22.25 16.06 0.04 0.07 6.19 19.34 12.72 24.26 0 0 1.4 29.48 14.24 29.48 1.12 0 9.44-4.04 9.44-4.04s3-17.92-6.67-38.33c0 0-6.51-13.1-11.93-19.1s-26.09-21-26.09-21c-4.75-2.88-8.33-4.03-10.96-4.03z" fill="#875334"/>
  <defs>
    <path id="c" d="m97.28 72.45c-4.15-7.82-8.62-21.08-14.15-22.92l-21.91-6.88c-3.01-1-11.08 1.58-15.19 3.52-0.35 0.12-18.48 12.77-18.48 12.77-4.31 2.71-6.14 8.27-1.64 11.41 5.54 3.87 10.67 4.26 15.81 2.13s8.83-6.77 13.34-8.51 12.11-0.97 16.01 4.26 5.94 21.24-8.01 27.08c-14.78 6.19-22.64-14.2-22.64-14.2-2.46-4.45-7.4-8.02-12.93-6.19-5.54 1.83-5.97 5.93-5.91 11.95 0 0 1.25 12.89 5.97 19.47s13.92 13.11 13.92 13.11c0.76 0.73 6.99 4.34 9.79 4.36l19.61-0.03c11.73-0.02 22.33-6.63 26.91-16.81 3.53-7.86 7.11-16.33 7.99-20.17 0.59-2.58-3.03-2.29-3.03-2.29s-1.31-4.23-5.46-12.06z"/>
  </defs>
  <clipPath id="b">
    <use xlink:href="#c"/>
  </clipPath>
  <g clip-path="url(#b)">
    <linearGradient id="a" gradientUnits="userSpaceOnUse" x1="33.107" x2="88.824" y1="56.243" y2="111.96">
      <stop offset="0" stop-color="#A56C43"/>
      <stop offset=".4321" stop-color="#A26942"/>
      <stop offset=".7794" stop-color="#98603D"/>
      <stop offset=".9991" stop-color="#8D5738"/>
    </linearGradient>
    <path d="m51.27 122.29c-2.26-0.02-7.98-3.25-8.77-3.94-0.04-0.04-0.12-0.1-0.16-0.13-0.09-0.06-9.05-6.47-13.57-12.76-4.44-6.18-5.87-18.29-5.88-18.41-0.56-3.96-0.14-8.98 5.07-10.71 0.83-0.28 1.67-0.42 2.51-0.42 3.92 0 7 2.99 8.6 5.82 0.6 1.51 6.77 16.23 18.52 16.23 1.98 0 4.02-0.43 6.06-1.29 7.19-3.01 9.99-8.36 11.07-12.32 1.79-6.55 0.08-13.67-2.44-17.04-2.66-3.57-7.28-5.69-12.34-5.69-1.95 0-3.82 0.32-5.41 0.94-2.43 0.94-4.62 2.63-6.74 4.26-2.08 1.6-4.23 3.26-6.64 4.26-1.9 0.79-3.7 1.17-5.51 1.17-2.94 0-5.84-1.03-8.87-3.14-1.34-0.93-2-2.12-1.96-3.53 0.05-1.94 1.44-4.06 3.55-5.38 6.92-4.83 17.37-12.09 18.36-12.7 3.32-1.55 8.56-2.82 11.7-2.82 0.97 0 1.53 0.12 1.82 0.21l21.54 7.01c4.58 1.53 11.44 12.15 14.74 17.26l0.91 1.4c0.06 0.09 0.12 0.17 0.19 0.24 0.08 0.08 8.32 8.44 6.68 15.65-0.7 3.08-3.43 9.95-7.89 19.88-4.34 9.66-14.37 15.91-25.54 15.93l-19.6 0.02z" fill="url(#a)"/>
    <path d="m58.41 46.18c0.87 0 1.25 0.11 1.37 0.14l21.51 6.99c4.09 1.36 11.01 12.08 13.97 16.65 0.33 0.51 0.63 0.98 0.91 1.41 0.11 0.17 0.24 0.33 0.39 0.48 2.16 2.17 7.48 8.96 6.28 14.26-0.47 2.08-2.21 7.17-7.8 19.6-4.1 9.12-13.59 15.02-24.18 15.04l-19.58 0.03c-1.57-0.01-6.67-2.69-7.8-3.58-0.09-0.08-0.18-0.16-0.28-0.22-0.09-0.06-8.84-6.32-13.22-12.42-4.2-5.86-5.59-17.59-5.61-17.71 0-0.03-0.01-0.06-0.01-0.09-0.7-4.87 0.67-7.91 4.06-9.03 0.68-0.23 1.36-0.34 2.04-0.34 3.24 0 5.85 2.54 7.24 4.98 0.85 2.09 7.38 17.07 19.88 17.07 2.18 0 4.42-0.47 6.64-1.4 7.75-3.24 10.76-9.03 11.93-13.31 1.93-7.09 0.11-14.59-2.68-18.33-2.94-3.94-8.01-6.3-13.54-6.3-2.13 0-4.19 0.36-5.95 1.04-2.64 1.02-4.91 2.77-7.12 4.47-2.09 1.62-4.07 3.14-6.3 4.07-1.71 0.71-3.33 1.06-4.93 1.06-2.62 0-5.24-0.94-8.01-2.87-0.91-0.64-1.35-1.38-1.32-2.27 0.03-1.43 1.18-3.1 2.85-4.15 0.04-0.03 0.08-0.05 0.12-0.08 6.4-4.47 16.8-11.7 18.16-12.57 3.11-1.42 8.1-2.62 10.98-2.62m0-3c-3.61 0-9.1 1.43-12.39 2.98-0.35 0.12-18.48 12.77-18.48 12.77-4.31 2.71-6.14 8.27-1.64 11.41 3.36 2.35 6.57 3.41 9.73 3.41 2.04 0 4.06-0.45 6.08-1.28 5.13-2.13 8.83-6.77 13.34-8.51 1.4-0.54 3.09-0.84 4.87-0.84 3.99 0 8.44 1.48 11.14 5.09 3.9 5.22 5.94 21.24-8.01 27.08-1.95 0.82-3.78 1.17-5.48 1.17-11.24 0-17.16-15.37-17.16-15.37-2.01-3.63-5.67-6.68-9.95-6.68-0.96 0-1.96 0.15-2.98 0.49-5.54 1.83-6.85 6.98-6.09 12.3 0 0 1.43 12.54 6.15 19.12s13.92 13.11 13.92 13.11c0.76 0.73 6.99 4.34 9.79 4.36l19.61-0.03c11.73-0.02 22.33-6.63 26.91-16.81 3.53-7.86 7.11-16.33 7.99-20.17 1.85-8.12-7.08-17.05-7.08-17.05-3.46-5.3-10.91-17.42-16.44-19.26l-21.53-7c-0.6-0.2-1.39-0.29-2.3-0.29z" fill="#875334"/>
  </g>
</svg>
